X: 763
T: A Trip to Marrow-bone
P: Longways for as many as will
%R: slip-jig
B: "The Dancing-Master" printed by John Walsh, London
S: 6: CCDM1 http://imslp.org/wiki/The_Compleat_Country_Dancing-Master_(Various) V.1 p.7 #13
Z: 2012-2013 John Chambers <jc:trillian.mit.edu>
N: 2nd part has initial repeat but no final repeat.
M: 9/4
L: 1/4
K: Gm
% - - - - - - - - - - - - - - - - - - - - - - - - -
|:\
A2B cBA BAG | ^FAA A2G ^FED | BAB cBc d2D | DGG G2A BAG :|\
|:\
f2f fgf =e2d | cAB A2G ^F>ED |
g2g g>ag ^f2d | dgg g2a bag |\
f2f f>gf =e2d | cAB A2G ^F>ED | BAB cBc d2D | DGG G2A BAG :|
% - - - - - - - - - - - - - - - - - - - - - - - - -
%%begintext align
%% The 1st Cu. cast off, and leads through the 3d Cu. .|  Then
%% the 1st Cu. cast up, and lead through the 2d Cu. :|  the 1st
%% Cu. cross over and half figure through the 2d, and then
%% dubble figure through the 3d Cu. .|  The 1st Cu. Right and
%% Left quite round with the 2d Cu. and turn in the 2d Cu.
%% Place.
%%endtext

%%sep 1 1 500
%%sep 1 1 500
